X:1
T:Christian Warfare
T:Frederick Louis Rowe, 1910
T:Christian Warfare
T:Public Domain
T:Public Domain
C:Frederick Louis Rowe, 1910
Z:Public Domain
%%score ( 1 2 ) ( 3 4 )
L:1/8
M:4/4
K:D
V:1 treble 
V:2 treble 
V:3 bass 
V:4 bass 
V:1
 D2 | F2 D2 [FA]2 [DF]2 | [Fd]3 [GB] [FA]2 [EG]2 | [DF]2 (ED) [CA]2 [EG]2 | [DF]2 [CE]3 z D2 | %5
w: 1.~A-|ye Christ- ians, stand|ed In this ho-|ly war- * fare, With|touch- ing shoul-|
w: 2.~Let|thing daunt— no foes|God’s brave ones ne-|ver wa- * ver; We’ll|day and plant|
w: 3.~Sleep|nor slum- ber— e’er|We’ll meet the foe|ad- vanc- * ing; Each|stripe more hon-|
w: 4.~E’en|to death, if God|To serve the cause|of Je- * sus; All|praise can- not|
 [DF]2 D2 [FA]2 [DF]2 | [Fd]3 [GB] [FA]2 [EG]2 | [DF]2 (GE) [A,D]2 [A,C]2 | [A,E]4 [A,D]2 || %9
w: march; Go forth to|and dare. * *|||
w: cross; Sweet rest comes|ter la- bor. Then|stand ye * brave- ly,|no fear;|
w: gains; Our com- ing|en- hanc- ing. *|||
w: pare With glor- ies|will give us. *|||
"^Refrain" D2 | [CE]2 [CA]2 [DF]2 [DA]2 | .[CB]2 .[DF]2 .E2 A,2 | D2 [CE]2 [DF]2 [D^G]2 | %13
w: ||||
w: God|ised thro’ His Son|That great- er vic-|are ours, If faith|
w: ||||
w: ||||
 [CA]6 (Bc) | [Fd]2 [Ac]2 [GB]2 [FA]2 | [DG]2 [DF]2 [GB]2 [^EB]2 | [FA]2 (FD) [CA]2 [CA]2 | D6 |] %18
w: |||||
w: lead us *|||||
w: |||||
w: |||||
V:2
 D2 | F2 D2 x4 | x8 | x2 ED x4 | x6 D2 | x2 D2 x4 | x8 | x2 C2 x4 | x6 || D2 | x8 | x4 E2 A,2 | %12
w: rouse,|u- nit-||shoul- der|der,|do|||||||
w: no-|af- fright,||win the|the|af-||know||prom-||t’ries yet|
w: not|on guard,||scar and|or|joys|||||||
w: down|should lead,||earth- ly|com-|God|||||||
 D2 x6 | x6 [GB]2 | x8 | x8 | x2 D2 x4 | D6 |] %18
w: ||||||
w: doth|on.|||||
w: ||||||
w: ||||||
V:3
 [D,F,]2 | [D,A,]2 [D,F,]2 [D,D]2 [D,A,]2 | [D,A,]3 [D,B,] [D,D]2 [G,B,]2 | %3
 A,2 (G,F,) [E,A,]2 [D,A,]2 | [A,,A,]2 [A,,A,]3 z [D,F,]2 | [D,A,]2 [D,F,]2 [D,D]2 [D,A,]2 | %6
 [D,A,]3 [D,B,] [D,D]2 [G,,B,]2 | [A,,A,]2 (E,G,) [A,,F,]2 [A,,E,]2 | [A,,G,]4 [D,F,]2 || D,2 | %10
 [A,,A,]2 [A,,A,]2 [D,F,]2 [F,A,]2 | .[E,A,]2 .[D,A,]2 .[C,A,]2 [G,A,]2 | %12
 [F,A,]2 [E,A,]2 [D,A,]2 [B,,E,]2 | ([A,,E,]2 G,2 F,2) [E,A,]2 | [D,A,]2 [D,A,]2 (B,C) [D,D]2 | %15
 [B,D]2 [A,D]2 [G,C]2 [^G,D]2 | [A,D]2 (A,F,) [A,,E,]2 [A,,G,]2 | [D,F,]6 |] %18
V:4
 x2 | x8 | x8 | A,2 A,2 x4 | x8 | x8 | x8 | x2 A,,2 x4 | x6 || D,2 | x8 | x8 | x8 | x2 A,4 x2 | %14
 x4 D,2 x2 | x8 | x2 A,2 x4 | x6 |] %18

